source/img/icon-play.svg

<svg width="101" height="78" xmlns="http://www.w3.org/2000/svg"><g fill="none"><path d="M97.255 18.708S96.335 11.7 93.47 8.63c-3.632-4.041-7.674-4.066-9.541-4.297C70.603 3.31 50.626 3.31 50.626 3.31h-.051s-19.978 0-33.304 1.023c-1.867.23-5.908.256-9.54 4.297-2.84 3.096-3.786 10.078-3.786 10.078s-.896 8.211-.896 16.422v7.699c0 8.21.947 16.421.947 16.421s.921 7.009 3.785 10.078c3.632 4.041 8.364 3.913 10.487 4.349 7.622.767 32.356 1.022 32.356 1.022s20.003-.025 33.329-1.048c1.867-.23 5.908-.256 9.54-4.298 2.84-3.069 3.786-10.078 3.786-10.078s.946-8.21.946-16.421v-7.699c-.023-8.236-.97-16.447-.97-16.447z" fill="#63D1BB"/><path d="M50.614 77.449h-.016c-1.015-.011-24.946-.266-32.604-1.037l-.14-.014-.137-.028c-.271-.056-.668-.107-1.126-.167-2.503-.328-7.159-.938-10.839-5.019-3.354-3.616-4.377-10.771-4.483-11.576l-.005-.043c-.039-.342-.965-8.463-.965-16.736V35.13c0-8.266.875-16.378.912-16.72l.009-.071c.108-.802 1.155-7.928 4.474-11.557 3.996-4.439 8.531-4.899 10.712-5.121.192-.02.37-.037.529-.058l.126-.013C30.338.571 50.373.559 50.575.559h.051c.201 0 20.236.013 33.514 1.031l.126.013c.159.021.337.038.529.058 2.179.221 6.71.682 10.704 5.112 3.354 3.616 4.377 10.771 4.483 11.577l.005.043c.039.342.965 8.459.99 16.753v7.708c0 8.273-.926 16.395-.965 16.736l-.007.053c-.108.805-1.156 7.953-4.478 11.562C91.533 75.64 87 76.101 84.82 76.322c-.193.02-.371.037-.53.057l-.126.013c-13.276 1.02-33.334 1.057-33.535 1.058l-.015-.001zM18.67 70.952c7.477.729 31.216.989 31.968.997.657-.001 20.135-.049 33.047-1.036.178-.021.371-.041.58-.062 1.836-.186 4.608-.468 7.186-3.335l.026-.029c1.825-1.974 2.853-6.928 3.075-8.552.059-.514.926-8.358.926-16.08v-7.699c-.023-7.76-.896-15.627-.951-16.109-.32-2.382-1.434-6.789-3.066-8.539l-.035-.038c-2.577-2.868-5.351-3.149-7.186-3.336a34.367 34.367 0 01-.58-.062c-13.066-.998-32.834-1.011-33.033-1.011h-.051c-.198 0-19.967.013-33.033 1.011a33.29 33.29 0 01-.58.062c-1.835.187-4.607.468-7.186 3.336l-.019.021c-1.828 1.993-2.855 6.924-3.082 8.552-.062.591-.875 8.399-.875 16.089v7.699c0 7.749.871 15.598.926 16.083.32 2.381 1.433 6.789 3.066 8.539l.035.039c2.322 2.584 5.303 2.975 7.479 3.259.481.061.939.121 1.363.201z" fill="#FFF"/><path fill="#FFF" d="M38.733 21.138v35.708L68.48 38.992z"/></g></svg>

<?xml version="1.0" encoding="UTF-8"?>
<svg width="101px" height="78px" viewBox="0 0 101 78" version="1.1" xmlns="http://www.w3.org/2000/svg" xmlns:xlink="http://www.w3.org/1999/xlink">
    <!-- Generator: Sketch 55.1 (78136) - https://sketchapp.com -->
    <title>Artboard</title>
    <desc>Created with Sketch.</desc>
    <g id="Artboard" stroke="none" stroke-width="1" fill="none" fill-rule="evenodd">
        <g id="icon-play" fill-rule="nonzero">
            <g id="Group">
                <path d="M97.255,18.708 C97.255,18.708 96.335,11.7 93.47,8.63 C89.838,4.589 85.796,4.564 83.929,4.333 C70.603,3.31 50.626,3.31 50.626,3.31 L50.575,3.31 C50.575,3.31 30.597,3.31 17.271,4.333 C15.404,4.563 11.363,4.589 7.731,8.63 C4.891,11.726 3.945,18.708 3.945,18.708 C3.945,18.708 3.049,26.919 3.049,35.13 L3.049,42.829 C3.049,51.039 3.996,59.25 3.996,59.25 C3.996,59.25 4.917,66.259 7.781,69.328 C11.413,73.369 16.145,73.241 18.268,73.677 C25.89,74.444 50.624,74.699 50.624,74.699 C50.624,74.699 70.627,74.674 83.953,73.651 C85.82,73.421 89.861,73.395 93.493,69.353 C96.333,66.284 97.279,59.275 97.279,59.275 C97.279,59.275 98.225,51.065 98.225,42.854 L98.225,35.155 C98.202,26.919 97.255,18.708 97.255,18.708 Z" id="Path" fill="#63D1BB"></path>
                <path d="M50.614,77.449 L50.598,77.449 C49.583,77.438 25.652,77.183 17.994,76.412 L17.854,76.398 L17.717,76.37 C17.446,76.314 17.049,76.263 16.591,76.203 C14.088,75.875 9.432,75.265 5.752,71.184 C2.398,67.568 1.375,60.413 1.269,59.608 L1.264,59.565 C1.225,59.223 0.299,51.102 0.299,42.829 L0.299,35.13 C0.299,26.864 1.174,18.752 1.211,18.41 L1.22,18.339 C1.328,17.537 2.375,10.411 5.694,6.782 C9.69,2.343 14.225,1.883 16.406,1.661 C16.598,1.641 16.776,1.624 16.935,1.603 L17.061,1.59 C30.338,0.571 50.373,0.559 50.575,0.559 L50.626,0.559 C50.827,0.559 70.862,0.572 84.14,1.59 L84.266,1.603 C84.425,1.624 84.603,1.641 84.795,1.661 C86.974,1.882 91.505,2.343 95.499,6.773 C98.853,10.389 99.876,17.544 99.982,18.35 L99.987,18.393 C100.026,18.735 100.952,26.852 100.977,35.146 L100.977,42.854 C100.977,51.127 100.051,59.249 100.012,59.59 L100.005,59.643 C99.897,60.448 98.849,67.596 95.527,71.205 C91.533,75.64 87,76.101 84.82,76.322 C84.627,76.342 84.449,76.359 84.29,76.379 L84.164,76.392 C70.888,77.412 50.83,77.449 50.629,77.45 L50.614,77.449 L50.614,77.449 Z M18.67,70.952 C26.147,71.681 49.886,71.941 50.638,71.949 C51.295,71.948 70.773,71.9 83.685,70.913 C83.863,70.892 84.056,70.872 84.265,70.851 C86.101,70.665 88.873,70.383 91.451,67.516 L91.477,67.487 C93.302,65.513 94.33,60.559 94.552,58.935 C94.611,58.421 95.478,50.577 95.478,42.855 L95.478,35.156 C95.455,27.396 94.582,19.529 94.527,19.047 C94.207,16.665 93.093,12.258 91.461,10.508 L91.426,10.47 C88.849,7.602 86.075,7.321 84.24,7.134 C84.031,7.113 83.838,7.093 83.66,7.072 C70.594,6.074 50.826,6.061 50.627,6.061 L50.576,6.061 C50.378,6.061 30.609,6.074 17.543,7.072 C17.366,7.093 17.172,7.113 16.963,7.134 C15.128,7.321 12.356,7.602 9.777,10.47 L9.758,10.491 C7.93,12.484 6.903,17.415 6.676,19.043 C6.614,19.634 5.801,27.442 5.801,35.132 L5.801,42.831 C5.801,50.58 6.672,58.429 6.727,58.914 C7.047,61.295 8.16,65.703 9.793,67.453 L9.828,67.492 C12.15,70.076 15.131,70.467 17.307,70.751 C17.788,70.812 18.246,70.872 18.67,70.952 Z" id="Shape" fill="#FFFFFF"></path>
            </g>
            <polygon id="Path" fill="#FFFFFF" points="38.733 21.138 38.733 56.846 68.48 38.992"></polygon>
        </g>
    </g>
</svg>
